ui/icon/svg/logo-web-component.svg

<svg viewBox="0 0 512 512" xmlns="http://www.w3.org/2000/svg"><path d="m179.9 388-76.16-132zm0 0h152.21l76.15-132-76.15-132h-152.21l-76.16 132zm-76.16-132 76.16-132z" fill="none"/><path d="m496 256-120-208h-136.26l-43.84 76h136.21l76.15 132-76.15 132h-136.21l43.84 76h136.26z"/><path d="m179.9 388-76.16-132 76.16-132 43.84-76h-87.74l-120 208 120 208h87.74z"/></svg>

<svg xmlns="http://www.w3.org/2000/svg" class="ionicon" viewBox="0 0 512 512"><title>Logo Web Component</title><path fill="none" d="M179.9 388l-76.16-132 76.16 132zM179.9 388h152.21l76.15-132-76.15-132H179.9l-76.16 132 76.16 132zM103.74 256l76.16-132-76.16 132z"/><path d="M496 256L376 48H239.74l-43.84 76h136.21l76.15 132-76.15 132H195.9l43.84 76H376l120-208z"/><path d="M179.9 388l-76.16-132 76.16-132 43.84-76H136L16 256l120 208h87.74l-43.84-76z"/></svg>
